X:1
T:Mrs. Lumsden of Achindores
T:Mrs. Lumsden of Achindores
T:Marshall
C:Marshall
L:1/8
M:4/4
K:G
V:1 treble 
V:1
|: [df] |"G" [Bg]2 d>B G>d B<G |"Am" E<A AB cB/A/"D7" FE/D/ |"G" g2 d>B G>d B>G | %4
"Am" EA"D7" FE/D/"G" [B,G]2 G :: d/e/f |"G" [Bg]<g gb"Am" e>a"D7" fd |"G" g<g gb d<g BG | %8
"Am" c<e"G" B<d"Am" E<A"D7" F<D |"Am" E>A"D7" FE/D/"G" [B,G]2 [B,G] :| %10

